X: 23422
T: Les Marionnettes
R: reel
M: 4/4
K: Amajor
|:B|ce~e2 fege|ae~e2 decd|BAGA ~B2AB|cABc dBBA|
ce~e2 fege|ae~e2 decd|BAGA Bfed|cABG A3:|
|:c|dB~B2 dB cA-|~A2 cA BAGF|EFGA Be~e2|fege aecA|
dB~B2 dB cA-|~A2 cA BAGF|ECDB, CE~E2|FEGE A3:|

